!!!SOCIAL_FUNCTION:	dream songs
!!!PDT:	1913
!!!OTL: No_136_Dream_Song.krn
!!!REG: Great_Lakes
!!!LANG: Non-Tone
!!!LING_GROUP: Algonquin
**kern	**kern
*staff2	*staff1
=1-	=1-
*clefF4	*clefG2
*k[]	*k[]
*M3/4	*M3/4
12GG^/	8.e/L
12r	.
12GG/	.
.	16c/Jk
12GG^/	2g/
12r	.
12GG/	.
12GG^/	.
12r	.
12GG/	.
=2	=2
2.r	8e/L
.	8c/J
.	4.e/
.	8g/
=3||	=3||
*M2/4	*M2/4
2r	8e/L
.	8G/J
.	8.c/L
.	16c/Jk
=4	=4
2r	8c/L
.	8c/J
.	8.c;/L
.	16c/Jk
=5||	=5||
*M3/4	*M3/4
2.r	8c/L
.	8g/J
.	4.e/
.	8g/
=6||	=6||
*M2/4	*M2/4
2r	8A/L
.	8G/J
.	4c/
=7	=7
2r	8g/L
.	8c/J
.	8c/L
.	16e/L
.	16c/JJ
=8	=8
2r	8G/L
.	8G/J
.	4G/
*	*clefF4
=9||	=9||
*M3/4	*M3/4
2.r	8c\L
.	8A\J
.	4.c\
.	16e\LL
.	16c\JJ
=10||	=10||
*M2/4	*M2/4
2r	8G\L
.	8G\J
.	4G\
=11	=11
2r	8G\L
.	8G\J
.	8G\L
.	8E\J
=12	=12
2r	8G\L
.	8E\J
.	8E\L
.	8E\J
=13	=13
2r	8C/L
.	8C/J
.	4C/
=14	=14
2r	2C/
*	*clefG2
=15||	=15||
*M3/4	*M3/4
2.r	8c/L
.	8c/J
.	4.e/
.	8g/
=16||	=16||
*M2/4	*M2/4
2r	8A/L
.	8G/J
.	4c/
=17	=17
2r	8g/L
.	8c/J
.	8c/L
.	16e/L
.	16c/JJ
=18	=18
2r	8G/L
.	8G/J
.	4G/
=19||	=19||
*M3/4	*M3/4
2.r	8c/L
.	8A/J
.	4.c/
.	16e/LL
.	16c/JJ
*	*clefF4
=20||	=20||
*M2/4	*M2/4
2r	8G\L
.	8G\J
.	4G\
=21	=21
2r	8G\L
.	8G\J
.	8G\L
.	8E\J
=22	=22
2r	8G\L
.	8E\J
.	8E\L
.	8E\J
=23	=23
2r	8C/L
.	8C/J
.	4C/
=24	=24
2r	2C/
==	==
*-	*-
